X:616
%%etbk:tnset id:359,pos:1,rep:3x,ant:
%%etbk:pldat 2014-12-11T17:58,2014-10-30T18:58,2014-10-29T16:58,2014-10-28T17:42,2014-10-27T19:15,2014-10-25T15:19,2014-10-23T18:09,2014-10-22T19:35,2014-10-19T16:00,2014-10-14T18:51,2014-10-12T14:27,2014-10-11T13:59
T: Glasgow Lullaby
R: song
M: C
L: 1/8
K:A
CE2EA2AA|GF2F/2F/2F4|B,/2B,/2B,2B,EG2F|FEEDC4|
-C2CCEA3|GF2GF4|-FGFED3G,|B,/2A,/2A,6E|
EE2EA2AA|GF2F/2G/2F4|-F2B,B,EG2F|FEEDC4|
-C2CCEA2A|G/2F/2F2GF4|-FG2FED/2C5/2|B,/2A,3/2A,7/4||


